assets/icons/brush-variant.svg

<svg version="1.1" viewBox="0 0 24 24" xmlns="http://www.w3.org/2000/svg">
 <path d="m8 3c-2.21 0-4 1.79-4 4v7c0 1.1 0.9 2 2 2h3v4c0 1.1 0.9 2 2 2h2c1.1 0 2-0.9 2-2v-4h3c1.1 0 2-0.9 2-2v-11h-12m0 2h4v2h2v-2h1v4h2v-4h1v5h-12v-3c0-1.1 0.9-2 2-2m-2 9v-2h12v2h-12z" fill="#fff"/>
</svg>

<?xml version="1.0" encoding="UTF-8" standalone="no"?>
<svg
   version="1.1"
   width="24"
   height="24"
   viewBox="0 0 24 24"
   id="svg4"
   sodipodi:docname="brush-variant.svg"
   inkscape:version="1.1.1 (3bf5ae0d25, 2021-09-20)"
   xmlns:inkscape="http://www.inkscape.org/namespaces/inkscape"
   xmlns:sodipodi="http://sodipodi.sourceforge.net/DTD/sodipodi-0.dtd"
   xmlns="http://www.w3.org/2000/svg"
   xmlns:svg="http://www.w3.org/2000/svg">
  <defs
     id="defs8" />
  <sodipodi:namedview
     id="namedview6"
     pagecolor="#505050"
     bordercolor="#eeeeee"
     borderopacity="1"
     inkscape:pageshadow="0"
     inkscape:pageopacity="0"
     inkscape:pagecheckerboard="0"
     showgrid="false"
     inkscape:zoom="31.041667"
     inkscape:cx="12"
     inkscape:cy="11.983893"
     inkscape:window-width="1920"
     inkscape:window-height="1019"
     inkscape:window-x="0"
     inkscape:window-y="30"
     inkscape:window-maximized="1"
     inkscape:current-layer="svg4" />
  <path
     d="M8 3C5.79 3 4 4.79 4 7V14C4 15.1 4.9 16 6 16H9V20C9 21.1 9.9 22 11 22H13C14.1 22 15 21.1 15 20V16H18C19.1 16 20 15.1 20 14V3H8M8 5H12V7H14V5H15V9H17V5H18V10H6V7C6 5.9 6.9 5 8 5M6 14V12H18V14H6Z"
     id="path2"
     style="fill:#ffffff" />
</svg>
